packages/foundations/icons/Education/Calculator.svg

<svg width="24" height="24" viewBox="0 0 24 24" fill="none" xmlns="http://www.w3.org/2000/svg">
<g clip-path="url(#clip0_1_9736)">
<path fill-rule="evenodd" clip-rule="evenodd" d="M18 0C20.2091 0 22 1.79086 22 4V20C22 22.2091 20.2091 24 18 24H6C3.79086 24 2 22.2091 2 20V4C2 1.79086 3.79086 0 6 0L18 0ZM18 2H6C4.89543 2 4 2.89543 4 4V20C4 21.1046 4.89543 22 6 22H18C19.1046 22 20 21.1046 20 20V4C20 2.89543 19.1046 2 18 2ZM17.5 9.25C18.1904 9.25 18.75 9.80964 18.75 10.5V19.5C18.75 20.1904 18.1904 20.75 17.5 20.75H6.5C5.80964 20.75 5.25 20.1904 5.25 19.5V10.5C5.25 9.80964 5.80964 9.25 6.5 9.25H17.5ZM9.599 17H6.75V19.25H9.599V17ZM13.5 17H10.599V19.25H13.5V17ZM14.5 19.25H17.25V14H14.5V19.25ZM13.5 16V14H10.599V16H13.5ZM9.599 14H6.75V16H9.599V14ZM9.599 10.75H6.75V13H9.599V10.75ZM13.5 10.75H10.599V13H13.5V10.75ZM17.25 10.75H14.5V13H17.25V10.75ZM17.5 3.25C18.1904 3.25 18.75 3.80964 18.75 4.5V6.5C18.75 7.19036 18.1904 7.75 17.5 7.75H6.5C5.80964 7.75 5.25 7.19036 5.25 6.5V4.5C5.25 3.80964 5.80964 3.25 6.5 3.25H17.5ZM17.25 4.75H6.75V6.25H17.25V4.75Z" fill="#3D474D"/>
</g>
<defs>
<clipPath id="clip0_1_9736">
<rect width="24" height="24" fill="white"/>
</clipPath>
</defs>
</svg>

<svg xmlns="http://www.w3.org/2000/svg" fill="none" viewBox="0 0 24 24" width="100%" height="100%">
  <g clip-path="url(#a)">
    <path fill="#3D474D" fill-rule="evenodd" d="M18 0a4 4 0 0 1 4 4v16a4 4 0 0 1-4 4H6a4 4 0 0 1-4-4V4a4 4 0 0 1 4-4h12Zm0 2H6a2 2 0 0 0-2 2v16a2 2 0 0 0 2 2h12a2 2 0 0 0 2-2V4a2 2 0 0 0-2-2Zm-.5 7.25c.69 0 1.25.56 1.25 1.25v9c0 .69-.56 1.25-1.25 1.25h-11c-.69 0-1.25-.56-1.25-1.25v-9c0-.69.56-1.25 1.25-1.25h11ZM9.599 17H6.75v2.25h2.849V17Zm3.901 0h-2.901v2.25H13.5V17Zm1 2.25h2.75V14H14.5v5.25Zm-1-3.25v-2h-2.901v2H13.5Zm-3.901-2H6.75v2h2.849v-2Zm0-3.25H6.75V13h2.849v-2.25Zm3.901 0h-2.901V13H13.5v-2.25Zm3.75 0H14.5V13h2.75v-2.25Zm.25-7.5c.69 0 1.25.56 1.25 1.25v2c0 .69-.56 1.25-1.25 1.25h-11c-.69 0-1.25-.56-1.25-1.25v-2c0-.69.56-1.25 1.25-1.25h11Zm-.25 1.5H6.75v1.5h10.5v-1.5Z" clip-rule="evenodd"/>
  </g>
  <defs>
    <clipPath id="a">
      <path fill="#fff" d="M0 0h24v24H0z"/>
    </clipPath>
  </defs>
</svg>
